X:59
M:6/8
L:1/8
K:G
(3D/E/F/|G2G GDB,|d2e dBG/F/|G2A B>AB|E2F G2:|
e2e dBG|G2A B>AB|E2F G2||

